X:1
T:Title
%%score { ( 1 2 ) | ( 3 4 ) }
L:1/8
M:4/4
K:E
V:1 treble nm="Grand Piano"
V:2 treble 
V:3 bass 
V:4 bass 
V:1
 z4 z2[Q:1/4=100] z F | G3 [GB] [GB]2 [EG]2 | [EG]3 [DF] E2 E2 | c3 c B2 G2 |[M:3/4] [DF]6 | %5
[M:1/4] [DF]2 |[M:4/4] E4 z4 | [CEA]2 [Ec]2 [B,EB]2 [B,EG]2 | [A,DF]3 [G,E] [B,EG]2 [A,DF]2 | %9
 [G,E]6 z2 | [GB]3 [GB] [GB]GEF | G6 z2 | c3 c cBBG | [DF]6 z2 | E3 F GB e>c | B6 z2 | %16
 c B3 [EGB]3 [B,EG][Q:1/4=98][Q:1/4=97][Q:1/4=95][Q:1/4=94][Q:1/4=92][Q:1/4=91][Q:1/4=89][Q:1/4=88][Q:1/4=86][Q:1/4=84][Q:1/4=83][Q:1/4=81][Q:1/4=80][Q:1/4=78][Q:1/4=77] | %17
[M:7/8] [B,EG]2 [A,DF]2 [G,E]3 |] %18
V:2
 z4 z2 E2 | x8 | x8 | x8 |[M:3/4] x6 |[M:1/4] x2 |[M:4/4] z2 G,2 [B,DF]2 [B,EG]2 | x8 | x8 | x8 | %10
 x8 | x8 | x8 | x8 | x8 | x8 | x8 |[M:7/8] x7 |] %18
V:3
 z4 z2 G,A, | [E,B,E]3 [E,E] [E,E]2 [E,B,]2 | [B,,B,]3 [B,,A,] [E,G,]2 [E,G,]2 | %3
 [A,E]3 [A,E] [G,B,E]2 [E,B,E]2 |[M:3/4] [B,,B,]6 |[M:1/4] [B,,A,]2 |[M:4/4] [C,G,]2 z E B,,2 E,2 | %7
 A,2 A,2 G,2 E,2 | B,,3 B,, B,,2 B,,2 | E,6 z2 | [E,E]3 [E,E] [E,E][E,B,E][E,G,][E,A,E] | %11
 [E,B,E]6 z2 | [A,E]3 [A,E] [A,E][G,B,E][G,B,E][E,B,E] | [B,,B,]6 z2 | %14
 [E,G,]3 [E,A,E] [E,B,E][E,G,E] [E,CE]>[E,A,E] | [E,G,E]6 z2 | [A,E] [G,B,E]3 E,3 E, | %17
[M:7/8] B,,2 B,,2 E,3 |] %18
V:4
 z4 z2 E,2 | x8 | x8 | x8 |[M:3/4] x6 |[M:1/4] x2 |[M:4/4] z2 C,2 z4 | x8 | x8 | x8 | x8 | x8 | %12
 x8 | x8 | x8 | x8 | x8 |[M:7/8] x7 |] %18

